X: 081	% 17
T: Rye Whiskey or Drunkards Hiccoughs
T: or Jack O'Diamonds
S: Viola Ruth "Pioneer Western Folk Tunes" 1948 p.8 #1
R: waltz
Z: 2019 John Chambers <jc:trillian.mit.edu>
M: 3/4
L: 1/8
K: G
V: 1 name=17
"^Waltz"(GA) |:\
B2 G2 (GE) | MD2 MB,2 MD2 | E2 G2 G2 | B4 (GA) |\
B2 G2 (GE) | MD2 MB,2 MD2 | ME2 MG2 MA2 | G4 (GA) ::\
B2 A2 (Bc) | d2 G2 A2 | B2 c2 B2 | A4 (GA) :|
B2 G2 (GE) | MD2 B,2 MD2 | ME2 MG2 MA2 | G4 B,2\
|:\
C[EC] M[EC]M[EC]M[EC]M[EC] | B,[DB,] M[DB,]M[DB,]M[DB,]M[DB,] |\
(E[GB,]) [G2B,2] [G2B,2] | [B4G4] B,2 |\
C[EC] M[EC]M[EC]M[EC]M[EC] | B,[DB,] M[DB,]M[DB,]M[DB,]M[DB,] |\
E2 G2 A2 | [G4B,4] :|
